public/img/bike.svg

<?xml version="1.0" encoding="UTF-8"?>
<svg fill="none" viewBox="0 0 466 449" xmlns="http://www.w3.org/2000/svg">
<style>#righthand,
#lefthand {
  animation: writing 0.9s ease infinite;
}

@keyframes writing {
  from{
    transform: rotateZ(0deg);
  }
  to{
    transform: rotateZ(0.4deg);
  }
}</style>
<path d="m120.5 328.34h30.569l75.332-27.9s53.497-20.666 49.13 18.6c-4.368 39.266-12.01 91.965-12.01 91.965s-24.019-10.333-37.12-7.233-4.367-63.033-4.367-63.033-106.99 48.566-116.82 42.366c-9.8255-6.2-12.009-49.599-12.009-49.599l27.294-5.166z" fill="#2F2E41"/>
<path d="m120.5 328.34h30.569l75.332-27.9s53.497-20.666 49.13 18.6c-4.368 39.266-12.01 91.965-12.01 91.965s-24.019-10.333-37.12-7.233-4.367-63.033-4.367-63.033-106.99 48.566-116.82 42.366c-9.8255-6.2-12.009-49.599-12.009-49.599l27.294-5.166z" fill="#000" opacity=".1"/>
<path d="m168.74 238 37.087 50.326 86.462 68.224s79.895 17.573 68.951 29.977c-10.945 12.404-77.707-12.404-77.707-12.404s-99.595-68.224-102.88-73.393c-3.283-5.168-39.4-53.751-39.4-53.751l27.486-8.979z" fill="#A0616A"/>
<path d="m146.26 197 23.831 44.885s-5.416 21.921-14.082 24.008c-8.666 2.088-45.496-27.139-45.496-27.139l35.747-41.754z" fill="#D0CDE1"/>
<path d="m146.26 197 23.831 44.885s-5.416 21.921-14.082 24.008c-8.666 2.088-45.496-27.139-45.496-27.139l35.747-41.754z" fill="#000" opacity=".1"/>
<path d="m439.68 305.33 7.106 27.842c0.08 0.311 0.067 0.636-0.035 0.94l-32.238 95.68c-0.127 0.379-0.388 0.705-0.738 0.923-0.35 0.219-0.769 0.317-1.185 0.278-0.417-0.039-0.807-0.213-1.106-0.492-0.298-0.279-0.487-0.647-0.534-1.043l-4.46-37.273c-0.029-0.247-3e-3 -0.498 0.079-0.735l29.59-86.249c0.124-0.36 0.367-0.671 0.694-0.888 0.327-0.216 0.72-0.325 1.118-0.311 0.398 0.015 0.78 0.152 1.089 0.392 0.308 0.24 0.526 0.568 0.62 0.936z" fill="#2F2E41"/>
<path d="m436.51 308 6.486 23.645-28.108 86.355-6.486-26.729 28.108-83.271z" fill="#F2F2F2"/>
<path d="m294.22 436.86c1.091 3.122 113.52-1.04 114.62-2.081 0.952-1.302 1.756-2.697 2.401-4.161 1.026-2.081 1.965-4.162 1.965-4.162l-4.366-33.689-111.34-3.766s-2.783 28.549-3.351 41.617c-0.142 3.298-0.142 5.618 0.077 6.242z" fill="#2F2E41"/>
<path d="m394.69 398 2.178 29h-49.008v-29h46.83z" fill="#000" opacity=".1"/>
<path d="m330.28 407.05 0.284-0.053-1.345 12h-26.522v-11.947h27.583z" fill="#000" opacity=".1"/>
<path d="m294.22 436.92c1.092 2.959 113.56-0.987 114.66-1.973 0.952-1.236 1.757-2.558 2.402-3.946h-117.14c-0.142 3.127-0.142 5.327 0.077 5.919z" fill="#000" opacity=".1"/>
<path d="m162.88 183c26.801 0 48.527-20.819 48.527-46.5s-21.726-46.5-48.527-46.5-48.527 20.819-48.527 46.5 21.726 46.5 48.527 46.5z" fill="#A0616A"/>
<path d="m159.52 177.89s-16.413 26.759-19.696 41.167c-3.283 14.409-49.239-28.817-49.239-28.817l-6.0181-14.923s43.222-19.039 39.938-34.477 35.015 37.05 35.015 37.05z" fill="#A0616A"/>
<path d="m168.24 258.27 44.803 55.794 107.09 75.424s77.585 15.498 60.101 26.863c-17.484 11.366-67.75-10.332-67.75-10.332s-108.18-54.76-131.13-77.49c-22.948-22.731-65.565-60.96-65.565-60.96l52.452-9.299z" fill="#A0616A"/>
<path d="m108.04 345.42 13.142 19.57 78.435-23.207c17.21-5.092 36.081-3.219 51.346 5.826 13.69 8.111 22.452 20.986 2.738 40.042-39.427 38.11-65.712 17.51-65.712 17.51s-132.52 58.711-154.42 29.87c-21.904-28.84-22.999-43.26-22.999-43.26s84.33-49.441 97.473-46.351z" fill="#2F2E41"/>
<path d="m271.71 413.29s34.777 21.674-6.521 31.994c-41.298 10.321-71.728-4.128-71.728-4.128s-35.864 0-35.864-17.545c0-17.546 11.954-19.61 11.954-19.61l36.951 5.16s44.559-11.353 65.208 4.129z" fill="#D0CDE1"/>
<path d="m203.06 124.47c3.336 1.414 6.644 3.088 10.271 3.498 3.627 0.411 7.756-0.793 9.473-3.859 0.927-1.656 1.032-3.604 1.076-5.479 0.131-5.688-0.302-11.836-4.092-16.238-2.412-2.8008-5.933-4.5666-8.429-7.2998-1.789-1.9581-2.98-4.3316-4.262-6.6211-4.855-8.6724-12.045-17.007-22.037-19.507-4.172-1.044-8.549-0.9931-12.863-0.9352l-25.162 0.3376c-4.071 0.0546-8.206 0.1181-12.104 1.2389-8.099 2.3286-13.996 8.8051-19.396 14.999-4.041 4.6338-8.092 9.3155-11.125 14.599-4.347 7.7107-6.5456 16.352-6.3852 25.1-0.0337 2.244 0.2709 4.481 0.9046 6.642 0.7412 1.982 1.6596 3.901 2.7446 5.734 4.719 8.813 7.521 19.822 2.207 28.324 9.231-3.586 18.365-8.288 24.454-15.797 2.724-3.359 4.861-7.291 8.491-9.756s9.546-2.679 11.875 0.939c0.801 1.463 1.213 3.091 1.201 4.74 0.17 2.716 0.166 5.536 1.376 8.001 1.211 2.465 4.095 4.453 6.849 3.716 4.742-1.27 4.288-8.191 7.94-11.335 2.774-2.388 7.053-1.932 10.617-3.015 4.152-1.263 7.267-4.684 9.042-8.47 1.35-2.878 1.33-10.409 3.883-11.967 3.202-1.954 10.483 1.153 13.451 2.411z" fill="#2F2E41"/>
<path d="m81.083 170.42c2.2203-0.559 4.5579-0.553 6.7753 0.016 7.0405 1.782 22.823 6.5 26.207 13.68 4.387 9.307 19.742 23.785 19.742 23.785s20.84 19.649 16.452 33.093c-4.387 13.444-20.839 28.957-20.839 28.957s4.387 64.117-17.548 80.664c-21.936 16.546-30.71 5.17-30.71 20.683 0 15.512-68.001 64.117-81.162 34.127 0 0 6.5808-55.845 4.3872-75.493-2.162-19.366 1.003-140.19 76.696-159.51z" fill="#D0CDE1"/>
<path d="m115.19 196.7s66.387 46.255 54.416 65.785c0 0-40.268 18.502-48.974 17.474-8.707-1.028-42.444-37.004-51.151-40.088-8.7065-3.083-13.06-58.589 45.709-43.171z" fill="#D0CDE1"/>
</svg>

<svg width="466" height="449" viewBox="0 0 466 449" fill="none" xmlns="http://www.w3.org/2000/svg">
<style>
#righthand,
#lefthand {
  animation: writing 0.9s ease infinite;
}

@keyframes writing {
  from{
    transform: rotateZ(0deg);
  }
  to{
    transform: rotateZ(0.4deg);
  }
}
</style>
<g id="undraw_web_developer_p3e5 1">
<path id="Vector" d="M120.505 328.335H151.074L226.406 300.435C226.406 300.435 279.903 279.769 275.536 319.035C271.168 358.301 263.526 411 263.526 411C263.526 411 239.507 400.667 226.406 403.767C213.305 406.867 222.039 340.734 222.039 340.734C222.039 340.734 115.046 389.3 105.22 383.1C95.3945 376.9 93.2109 333.501 93.2109 333.501L120.505 328.335Z" fill="#2F2E41"/>
<path id="Vector_2" opacity="0.1" d="M120.505 328.335H151.074L226.406 300.435C226.406 300.435 279.903 279.769 275.536 319.035C271.168 358.301 263.526 411 263.526 411C263.526 411 239.507 400.667 226.406 403.767C213.305 406.867 222.039 340.734 222.039 340.734C222.039 340.734 115.046 389.3 105.22 383.1C95.3945 376.9 93.2109 333.501 93.2109 333.501L120.505 328.335Z" fill="black"/>
<path id="lefthand" d="M168.744 238L205.831 288.326L292.293 356.55C292.293 356.55 372.188 374.123 361.244 386.527C350.299 398.931 283.537 374.123 283.537 374.123C283.537 374.123 183.942 305.899 180.658 300.73C177.375 295.562 141.258 246.979 141.258 246.979L168.744 238Z" fill="#A0616A"/>
<path id="Vector_3" d="M146.255 197L170.086 241.885C170.086 241.885 164.67 263.806 156.004 265.893C147.338 267.981 110.508 238.754 110.508 238.754L146.255 197Z" fill="#D0CDE1"/>
<path id="Vector_4" opacity="0.1" d="M146.255 197L170.086 241.885C170.086 241.885 164.67 263.806 156.004 265.893C147.338 267.981 110.508 238.754 110.508 238.754L146.255 197Z" fill="black"/>
<path id="Vector_5" d="M439.678 305.329L446.784 333.171C446.864 333.482 446.851 333.807 446.749 334.111L414.511 429.791C414.384 430.17 414.123 430.496 413.773 430.714C413.423 430.933 413.004 431.031 412.588 430.992C412.171 430.953 411.781 430.779 411.482 430.5C411.184 430.221 410.995 429.853 410.948 429.457L406.488 392.184C406.459 391.937 406.485 391.686 406.567 391.449L436.157 305.2C436.281 304.84 436.524 304.529 436.851 304.312C437.178 304.096 437.571 303.987 437.969 304.001C438.367 304.016 438.749 304.153 439.058 304.393C439.366 304.633 439.584 304.961 439.678 305.329Z" fill="#2F2E41"/>
<path id="Vector_6" d="M436.506 308L442.992 331.645L414.884 418L408.398 391.271L436.506 308Z" fill="#F2F2F2"/>
<path id="Vector_7" d="M294.222 436.859C295.313 439.981 407.745 435.819 408.837 434.778C409.789 433.476 410.593 432.081 411.238 430.617C412.264 428.536 413.203 426.455 413.203 426.455L408.837 392.766L297.496 389C297.496 389 294.713 417.549 294.145 430.617C294.003 433.915 294.003 436.235 294.222 436.859Z" fill="#2F2E41"/>
<path id="Vector_8" opacity="0.1" d="M394.689 398L396.867 427H347.859V398H394.689Z" fill="black"/>
<path id="Vector_9" opacity="0.1" d="M330.278 407.053L330.562 407L329.217 419H302.695V407.053H330.278Z" fill="black"/>
<path id="Vector_10" opacity="0.1" d="M294.222 436.919C295.314 439.878 407.787 435.932 408.879 434.946C409.831 433.71 410.636 432.388 411.281 431H294.145C294.003 434.127 294.003 436.327 294.222 436.919Z" fill="black"/>
<path id="Vector_11" d="M162.879 183C189.68 183 211.406 162.181 211.406 136.5C211.406 110.819 189.68 90 162.879 90C136.078 90 114.352 110.819 114.352 136.5C114.352 162.181 136.078 183 162.879 183Z" fill="#A0616A"/>
<path id="Vector_12" d="M159.516 177.892C159.516 177.892 143.103 204.651 139.82 219.059C136.537 233.468 90.5806 190.242 90.5806 190.242L84.5625 175.319C84.5625 175.319 127.784 156.28 124.501 140.842C121.218 125.404 159.516 177.892 159.516 177.892Z" fill="#A0616A"/>
<g id="righthand">
<path id="Vector_13" d="M168.235 258.268L213.038 314.062L320.126 389.486C320.126 389.486 397.711 404.984 380.227 416.349C362.743 427.715 312.477 406.017 312.477 406.017C312.477 406.017 204.296 351.257 181.348 328.527C158.4 305.796 115.783 267.567 115.783 267.567L168.235 258.268Z" fill="#A0616A"/>
</g>
<path id="Vector_14" d="M108.043 345.419L121.185 364.989L199.62 341.782C216.83 336.69 235.701 338.563 250.966 347.608C264.656 355.719 273.418 368.594 253.704 387.65C214.277 425.76 187.992 405.16 187.992 405.16C187.992 405.16 55.4734 463.871 33.5694 435.03C11.6655 406.19 10.5703 391.77 10.5703 391.77C10.5703 391.77 94.9005 342.329 108.043 345.419Z" fill="#2F2E41"/>
<path id="Vector_15" d="M271.707 413.289C271.707 413.289 306.484 434.963 265.186 445.283C223.888 455.604 193.458 441.155 193.458 441.155C193.458 441.155 157.594 441.155 157.594 423.61C157.594 406.064 169.548 404 169.548 404L206.499 409.16C206.499 409.16 251.058 397.807 271.707 413.289Z" fill="#D0CDE1"/>
<path id="Vector_16" d="M203.059 124.467C206.395 125.881 209.703 127.555 213.33 127.965C216.957 128.376 221.086 127.172 222.803 124.106C223.73 122.45 223.835 120.502 223.879 118.627C224.01 112.939 223.577 106.791 219.787 102.389C217.375 99.5882 213.854 97.8224 211.358 95.0892C209.569 93.1311 208.378 90.7576 207.096 88.4681C202.241 79.7957 195.051 71.4609 185.059 68.9608C180.887 67.9168 176.51 67.9677 172.196 68.0256L147.034 68.3632C142.963 68.4178 138.828 68.4813 134.93 69.6021C126.831 71.9307 120.934 78.4072 115.534 84.6009C111.493 89.2347 107.442 93.9164 104.409 99.2003C100.062 106.911 97.8634 115.552 98.0238 124.3C97.9901 126.544 98.2947 128.781 98.9284 130.942C99.6696 132.924 100.588 134.843 101.673 136.676C106.392 145.489 109.194 156.498 103.88 165C113.111 161.414 122.245 156.712 128.334 149.203C131.058 145.844 133.195 141.912 136.825 139.447C140.455 136.982 146.371 136.768 148.7 140.386C149.501 141.849 149.913 143.477 149.901 145.126C150.071 147.842 150.067 150.662 151.277 153.127C152.488 155.592 155.372 157.58 158.126 156.843C162.868 155.573 162.414 148.652 166.066 145.508C168.84 143.12 173.119 143.576 176.683 142.493C180.835 141.23 183.95 137.809 185.725 134.023C187.075 131.145 187.055 123.614 189.608 122.056C192.81 120.102 200.091 123.209 203.059 124.467Z" fill="#2F2E41"/>
<path id="Vector_17" d="M81.0834 170.415C83.3037 169.856 85.6413 169.862 87.8587 170.431C94.8992 172.213 110.682 176.931 114.066 184.111C118.453 193.418 133.808 207.896 133.808 207.896C133.808 207.896 154.648 227.545 150.26 240.989C145.873 254.433 129.421 269.946 129.421 269.946C129.421 269.946 133.808 334.063 111.873 350.61C89.9368 367.156 81.1625 355.78 81.1625 371.293C81.1625 386.805 13.1615 435.41 0 405.42C0 405.42 6.58075 349.575 4.38717 329.927C2.22522 310.561 5.39019 189.737 81.0834 170.415Z" fill="#D0CDE1"/>
<path id="Vector_18" d="M115.187 196.7C115.187 196.7 181.574 242.955 169.603 262.485C169.603 262.485 129.335 280.987 120.629 279.959C111.922 278.931 78.1847 242.955 69.4783 239.871C60.7718 236.788 56.4186 181.282 115.187 196.7Z" fill="#D0CDE1"/>
</g>
</svg>
